images/calendar.svg

<svg width="17" height="15" viewBox="0 0 17 15" fill="none" xmlns="http://www.w3.org/2000/svg">
<path d="M5.86426 10C6.16426 10 6.36426 9.8 6.36426 9.5C6.36426 9.2 6.16426 9 5.86426 9C5.56426 9 5.36426 9.2 5.36426 9.5C5.36426 9.8 5.56426 10 5.86426 10Z" fill="black"/>
<path d="M15.1143 2H13.1143V0H12.1143V2H4.11426V0H3.11426V2H1.11426C0.514258 2 0.114258 2.4 0.114258 3V14C0.114258 14.5 0.514258 15 1.11426 15H15.1143C15.6143 15 16.1143 14.5 16.1143 14V3C16.1143 2.4 15.6143 2 15.1143 2ZM15.1143 14H1.11426V7H15.1143V14ZM1.11426 6V3H3.11426V5H4.11426V3H12.1143V5H13.1143V3H15.1143V6H1.11426Z" fill="black"/>
<path d="M8.11426 10C8.41426 10 8.61426 9.8 8.61426 9.5C8.61426 9.2 8.41426 9 8.11426 9C7.81426 9 7.61426 9.2 7.61426 9.5C7.61426 9.8 7.81426 10 8.11426 10Z" fill="black"/>
<path d="M10.3643 10C10.6643 10 10.8643 9.8 10.8643 9.5C10.8643 9.2 10.6643 9 10.3643 9C10.0643 9 9.86426 9.2 9.86426 9.5C9.86426 9.8 10.0643 10 10.3643 10Z" fill="black"/>
<path d="M5.86426 11C5.56426 11 5.36426 11.2 5.36426 11.5C5.36426 11.8 5.56426 12 5.86426 12C6.16426 12 6.36426 11.8 6.36426 11.5C6.36426 11.2 6.16426 11 5.86426 11Z" fill="black"/>
<path d="M3.61426 10C3.91426 10 4.11426 9.8 4.11426 9.5C4.11426 9.2 3.91426 9 3.61426 9C3.31426 9 3.11426 9.2 3.11426 9.5C3.11426 9.8 3.31426 10 3.61426 10Z" fill="black"/>
<path d="M3.61426 11C3.31426 11 3.11426 11.2 3.11426 11.5C3.11426 11.8 3.31426 12 3.61426 12C3.91426 12 4.11426 11.8 4.11426 11.5C4.11426 11.2 3.91426 11 3.61426 11Z" fill="black"/>
<path d="M8.11426 11C7.81426 11 7.61426 11.2 7.61426 11.5C7.61426 11.8 7.81426 12 8.11426 12C8.41426 12 8.61426 11.8 8.61426 11.5C8.61426 11.2 8.41426 11 8.11426 11Z" fill="black"/>
<path d="M10.3643 11C10.0643 11 9.86426 11.2 9.86426 11.5C9.86426 11.8 10.0643 12 10.3643 12C10.6643 12 10.8643 11.8 10.8643 11.5C10.8643 11.2 10.6643 11 10.3643 11Z" fill="black"/>
<path d="M12.6143 10C12.9143 10 13.1143 9.8 13.1143 9.5C13.1143 9.2 12.9143 9 12.6143 9C12.3143 9 12.1143 9.2 12.1143 9.5C12.1143 9.8 12.3143 10 12.6143 10Z" fill="black"/>
<path d="M12.6143 11C12.3143 11 12.1143 11.2 12.1143 11.5C12.1143 11.8 12.3143 12 12.6143 12C12.9143 12 13.1143 11.8 13.1143 11.5C13.1143 11.2 12.9143 11 12.6143 11Z" fill="black"/>
</svg>

<svg width="17" height="15" viewBox="0 0 17 15" fill="none" xmlns="http://www.w3.org/2000/svg"><path d="M5.86 10c.3 0 .5-.2.5-.5s-.2-.5-.5-.5-.5.2-.5.5.2.5.5.5Z" fill="#000"/><path d="M15.11 2h-2V0h-1v2h-8V0h-1v2h-2c-.6 0-1 .4-1 1v11c0 .5.4 1 1 1h14c.5 0 1-.5 1-1V3c0-.6-.5-1-1-1Zm0 12h-14V7h14v7Zm-14-8V3h2v2h1V3h8v2h1V3h2v3h-14Z" fill="#000"/><path d="M8.11 10c.3 0 .5-.2.5-.5s-.2-.5-.5-.5-.5.2-.5.5.2.5.5.5ZM10.36 10c.3 0 .5-.2.5-.5s-.2-.5-.5-.5-.5.2-.5.5.2.5.5.5ZM5.86 11c-.3 0-.5.2-.5.5s.2.5.5.5.5-.2.5-.5-.2-.5-.5-.5ZM3.61 10c.3 0 .5-.2.5-.5s-.2-.5-.5-.5-.5.2-.5.5.2.5.5.5ZM3.61 11c-.3 0-.5.2-.5.5s.2.5.5.5.5-.2.5-.5-.2-.5-.5-.5ZM8.11 11c-.3 0-.5.2-.5.5s.2.5.5.5.5-.2.5-.5-.2-.5-.5-.5ZM10.36 11c-.3 0-.5.2-.5.5s.2.5.5.5.5-.2.5-.5-.2-.5-.5-.5ZM12.61 10c.3 0 .5-.2.5-.5s-.2-.5-.5-.5-.5.2-.5.5.2.5.5.5ZM12.61 11c-.3 0-.5.2-.5.5s.2.5.5.5.5-.2.5-.5-.2-.5-.5-.5Z" fill="#000"/></svg>
